resources/icons/16px/new-layers.svg

<?xml version="1.0" encoding="UTF-8"?>
<svg width="16px" height="16px" viewBox="0 0 16 16" version="1.1" xmlns="http://www.w3.org/2000/svg" xmlns:xlink="http://www.w3.org/1999/xlink">
    <!-- Generator: Sketch 58 (84663) - https://sketch.com -->
    <title>pt-icon-new-layers</title>
    <desc>Created with Sketch.</desc>
    <defs>
        <path d="M13,3 L15,3 C15.5522847,3 16,3.44771525 16,4 C16,4.55228475 15.5522847,5 15,5 L13,5 L13,7 C13,7.55228475 12.5522847,8 12,8 C11.4477153,8 11,7.55228475 11,7 L11,5 L9,5 C8.44771525,5 8,4.55228475 8,4 C8,3.44771525 8.44771525,3 9,3 L11,3 L11,1 C11,0.44771525 11.4477153,0 12,0 C12.5522847,0 13,0.44771525 13,1 L13,3 Z M10,1.01669528 L10,2 L9,2 C7.8954305,2 7,2.8954305 7,4 C7,5.1045695 7.8954305,6 9,6 L10,6 L10,7 C10,7.27865888 10.0569891,7.54400726 10.1599481,7.78502597 L8.45,8.64 C8.31,8.71 8.16,8.75 8,8.75 C7.84,8.75 7.69,8.71 7.55,8.64 L0.55,5.14 C0.23,4.98 0,4.64 0,4.25 C0,3.84 0.25,3.48 0.62,3.33 L7.61,0.33 C7.73,0.28 7.86,0.25 8,0.25 C8.14,0.25 8.27,0.28 8.4,0.33 L10,1.01669528 Z M10.9100617,8.67719059 C11.2236014,8.88136471 11.5979463,9 12,9 C13.0585628,9 13.9250456,8.17760763 13.9953893,7.13688196 L14.55,6.86 C14.69,6.79 14.84,6.75 15,6.75 C15.55,6.75 16,7.2 16,7.75 C16,8.14 15.77,8.48 15.45,8.64 L8.45,12.14 C8.31,12.21 8.16,12.25 8,12.25 C7.84,12.25 7.69,12.21 7.55,12.14 L0.55,8.64 C0.23,8.48 0,8.14 0,7.75 C0,7.2 0.45,6.75 1,6.75 C1.16,6.75 1.31,6.79 1.45,6.86 L8,10.13 L10.9100617,8.67719059 Z M15,10.25 C15.55,10.25 16,10.7 16,11.25 C16,11.64 15.77,11.98 15.45,12.14 L8.45,15.64 C8.31,15.71 8.16,15.75 8,15.75 C7.84,15.75 7.69,15.71 7.55,15.64 L0.55,12.14 C0.23,11.98 0,11.64 0,11.25 C0,10.7 0.45,10.25 1,10.25 C1.16,10.25 1.31,10.29 1.45,10.35 L8,13.63 L14.55,10.36 C14.69,10.29 14.84,10.25 15,10.25 Z" id="path-1"></path>
    </defs>
    <g id="pt-icon-new-layers" stroke="none" stroke-width="1" fill="none" fill-rule="evenodd">
        <mask id="mask-2" fill="white">
            <use xlink:href="#path-1"></use>
        </mask>
        <use id="path-1" fill="#000000" xlink:href="#path-1"></use>
    </g>
</svg>

<svg xmlns="http://www.w3.org/2000/svg" viewBox="0 0 16 16">
  <path d="M13 3h2a1 1 0 1 1 0 2h-2v2a1 1 0 1 1-2 0V5H9a1 1 0 1 1 0-2h2V1a1 1 0 1 1 2 0zm-3-1.983V2H9a2 2 0 1 0 0 4h1v1c0 .279.057.544.16.785l-1.71.855c-.14.07-.29.11-.45.11s-.31-.04-.45-.11l-7-3.5a.992.992 0 0 1 .07-1.81l6.99-3a1 1 0 0 1 .79 0zm.91 7.66a2 2 0 0 0 3.085-1.54l.555-.277c.14-.07.29-.11.45-.11.55 0 1 .45 1 1 0 .39-.23.73-.55.89l-7 3.5c-.14.07-.29.11-.45.11s-.31-.04-.45-.11l-7-3.5C.23 8.48 0 8.14 0 7.75c0-.55.45-1 1-1 .16 0 .31.04.45.11L8 10.13zM15 10.25c.55 0 1 .45 1 1 0 .39-.23.73-.55.89l-7 3.5c-.14.07-.29.11-.45.11s-.31-.04-.45-.11l-7-3.5c-.32-.16-.55-.5-.55-.89 0-.55.45-1 1-1 .16 0 .31.04.45.1L8 13.63l6.55-3.27c.14-.07.29-.11.45-.11"/>
</svg>
